shared/images/iconfont/kb-iconfont-back-16.svg

<?xml version="1.0" encoding="UTF-8"?>
<svg width="16px" height="16px" viewBox="0 0 16 16" version="1.1" xmlns="http://www.w3.org/2000/svg" xmlns:xlink="http://www.w3.org/1999/xlink">
    <!-- Generator: sketchtool 41.2 (35397) - http://www.bohemiancoding.com/sketch -->
    <title>E0CB739D-E926-4BBE-986D-4BCB97C02242</title>
    <desc>Created with sketchtool.</desc>
    <defs></defs>
    <g id="Icons" stroke="none" stroke-width="1" fill="none" fill-rule="evenodd">
        <g id="Style-guide---Desktop---Icons-2" transform="translate(-401.000000, -1087.000000)">
            <g id="kb-iconfont-back-16" transform="translate(401.000000, 1087.000000)">
                <rect id="icon-area" fill="#D8D8D8" opacity="0" x="0" y="0" width="16" height="16"></rect>
                <path d="M2.24944444,9.04777778 L6.78833333,13.5866667 C6.96277778,13.7616667 7.175,13.8488889 7.41166667,13.8488889 C7.66111111,13.8488889 7.87333333,13.7616667 8.04777778,13.5866667 L8.57166667,13.0505556 C8.74611111,12.8883333 8.83333333,12.6766667 8.83333333,12.4272222 C8.83333333,12.1777778 8.74611111,11.9655556 8.57166667,11.8038889 L6.52666667,9.75888889 L11.4272222,9.75888889 C11.6638889,9.75888889 11.8633333,9.67111111 12.0133333,9.49666667 C12.1627778,9.32222222 12.2377778,9.11 12.2377778,8.87333333 L12.2377778,7.97555556 C12.2377778,7.73833333 12.1627778,7.52666667 12.0133333,7.35222222 C11.8633333,7.17722222 11.6638889,7.09 11.4272222,7.09 L6.52666667,7.09 L8.57166667,5.045 C8.74611111,4.87055556 8.83333333,4.65833333 8.83333333,4.42166667 C8.83333333,4.17222222 8.74611111,3.96 8.57166667,3.78555556 L8.04777778,3.27444444 C7.87333333,3.1 7.66111111,3 7.41166667,3 C7.175,3 6.96277778,3.1 6.78833333,3.27444444 L2.24944444,7.78833333 C2.08722222,7.97555556 2,8.18722222 2,8.42444444 C2,8.67388889 2.08722222,8.87333333 2.24944444,9.04777778" id="Fill-264" fill="#000000"></path>
            </g>
        </g>
    </g>
</svg>

<svg xmlns="http://www.w3.org/2000/svg" width="16" height="16" viewBox="0 0 16 16">
    <path fill="#000" fill-rule="evenodd" d="M2.25 9.048l4.538 4.539a.857.857 0 0 0 .624.262c.25 0 .461-.087.636-.262l.524-.536a.82.82 0 0 0 .261-.624.818.818 0 0 0-.261-.623L6.527 9.759h4.9a.743.743 0 0 0 .586-.262.935.935 0 0 0 .225-.624v-.897a.934.934 0 0 0-.225-.624.74.74 0 0 0-.586-.262h-4.9l2.045-2.045a.858.858 0 0 0 .261-.623.866.866 0 0 0-.261-.636l-.524-.512A.878.878 0 0 0 7.412 3c-.237 0-.45.1-.624.274L2.25 7.788A.95.95 0 0 0 2 8.424c0 .25.087.45.25.624"/>
</svg>
